X: 57
T:Storrers
% Nottingham Music Database
S:Nan F-W, via EF
M:4/4
L:1/4
K:A
P:A
e/2d/2|"A"cA A/2c/2B/2A/2|"E"GE E3/2E/2|"B7"^DB B/2c/2B/2A/2|"E7"GE E e/2d/2|
"A"cA A/2c/2B/2A/2|"Bm"G/2A/2B/2c/2 "A7"d/2e/2f/2g/2|\
"A"a/2e/2c/2e/2 "E7"B/2f/2e/2d/2|"A"cA A:|
K:A
P:B
c/2e/2|"A"f/2e/2c/2e/2 a/2g/2f/2e/2|"A"fe ec/2e/2|"A"f/2e/2c/2e/2 a/2g/2f/2e/2\
|"E7"dB Be|
"A"f/2e/2c/2e/2 a/2g/2f/2e/2|"D"f/2e/2f/2g/2 a/2g/2f/2e/2|\
"A"d/2c/2B/2A/2 "E7"G/2B/2e/2d/2|"A"cA A:|


